X:1
T:Étude op. 30 no 23
T:Étude op. 30 no 23
T:Joachim Andersen
C:Joachim Andersen
L:1/8
Q:1/4=72
M:4/4
K:F
V:1 treble nm="Flûte" snm="Fl."
V:1
"^Andante tranquillo"!p!{/FAc} f4{/FBd} g4 |{/F_de} b4{/Fcf} a4 | %2
{/Beg} d'2{/Acf} c'2{/Gce} b2{/Fcf} a2 |{/EGc} g2{/D=Bf} g2{/CGe} g4 |{/FAc} f4{/FBd} g4 | %5
{/F_de} b4{/Fcf} a4 |{/Acf} c'2{/Bdf} d'2{/Gcb} e'2{/Fca} f'2 |{/Acf} c'2{/GBe} c'2{/FAc} f4 || %8
{/Ace} a4{/Adf} =b4 |{/Ade} ^g4{/Ace} a4 |!p!{/CEA} e4!<(!{/DE^G} e2{/DEG} e2 | %11
{/CEA} e2{/^Dc^f} a2{/E=Be} ^g4!<)! |!mf!{/Ace} a4!<(!{/_Adf} =b4 |{/G=Bf} g4{/EGc} g4!<)! | %14
{/Gce} c'2{/Ecg} =b2{/Fcf} a2{/DA=B} f2 |{/EAc} e2{/E^Gd} e2 A4 ||!p!{/FAc} f4{/FBd} g4 | %17
{/F_de} b4{/Fcf} a4 |{/Beg} d'2{/Acf} c'2{/Gce} b2{/Fcf} a2 |{/EGc} g2{/D=Bf} g2{/CGe} g4 | %20
{/FAc} f4{/FBd} g4 |{/F_de} b4{/Fcf} a4 |!<(!{/Acf} c'2{/Bdf} d'2{/Gcb} e'2{/Fca} f'2!<)! | %23
!>(!{/Acf} c'2{/GBe} c'2{/FAc} f4!>)! || %24
!mf!"_un poco più mosso" (f/e/g/f/ A/e/g/f/) (g/^f/a/g/ B/f/a/g/) | %25
 (b/a/c'/b/ _d/a/c'/b/) (a/^g/b/a/ c/g/b/a/) | %26
 (d'/^f/a/g/)!>(! (c'/e/g/=f/) (b/^d/f/e/) (a/^c/e/=d/) | %27
 (g/=B/!>)!d/c/) (g/^A/c/B/)!<(! (g/B/d/c/ _B/c/e/g/)!<)! | %28
 (f/e/g/f/ A/e/g/f/) (g/^f/a/g/ B/f/a/g/) | (b/a/c'/b/ _d/a/c'/b/) (a/^g/b/a/ c/g/b/a/) | %30
 (A/=b/d'/c'/) (B/^c'/e'/d'/) (G/^d'/f'/e'/) (A/e'/g'/f'/) | %31
 (c/=b/d'/c'/) (B/b/d'/c'/) (A/e/g/f/) F2 || (a/^g/=b/a/ A/c/f/e/) (b/^a/c'/b/ A/d/=g/f/) | %33
 (^g/^^f/a/g/ A/=B/e/d/) (a/g/=b/a/ A/c/=f/e/) | %34
 (e/^^F/A/^G/) (f/G/=B/A/) (e/^A/c/B/) (e/^c/e/d/) | %35
 (e/=B/d/c/) (a/^^c/e/^d/)!>(! (^g/E/^G/B/ e/g/=b/e'/)!>)! | %36
 (a/^g/=b/a/ A/!<(!c/f/e/) (b/^a/c'/b/ _A/d/=g/f/) | %37
 (g/^f/a/g/!<)! =B/=f/e'/d'/) (g/^f/a/g/ c/e/d'/c'/) | %38
 (c'/^d/f/e/) (=b/^c/e/=d/) (a/=B/d/=c/) (f/^A/c/B/) | %39
 (e/^G/=B/A/)"_dim." (e/^^F/A/G/) (A/c/e/a/ A2) ||!mf! (f/e/g/f/ A/e/g/f/) (g/^f/a/g/ B/f/a/g/) | %41
 (b/a/c'/b/ _d/a/c'/b/) (a/^g/b/a/ c/g/b/a/) | %42
 (d'/^f/a/g/)!>(! (c'/e/g/=f/) (b/^d/f/e/) (a/^c/e/=d/)!>)! | %43
 (g/=B/d/c/)!<(! (g/^A/c/B/) (g/B/d/c/ _B/c/e/g/)!<)! | %44
!mf! (f/e/g/f/ A/e/g/f/) (g/^f/a/g/ B/f/a/g/) | (b/a/c'/b/ _d/a/c'/b/) (a/^g/b/a/ c/g/b/a/) | %46
 (A/=b/d'/"_cresc."c'/) (B/^c'/e'/d'/) (G/^d'/f'/e'/) (A/e'/g'/f'/) | %47
!f! (c/=b/d'/c'/) (B/b/d'/c'/) (A/e/g/f/) F2 ||!p!{/A_ef} c'4{/Bdf} b4 |{/E_dg} b4{/_Ec_g} a4 | %50
!<(!{/DBf} b4{/Acf} c'2{/Bdf} d'2!<)! |!>(!{/Ecg} c'2{/Gcb} c'2!>)!{/Fca} c'4 | %52
!mf!!<(!{/A_ef} c'4{/Bdf} b4 |{/^cgb} e'4!<)!{/dfa} f'4 |!>(!{/Acf} c'4{/GBf} c'2!>)!{/GBe} c'2 | %55
!p!{/FAc} f4{/F_de} b4 |{/Fcf} a4{/FB_d} e4 |!<(!{/FAc} f4{/FBe} _d'4 |{/FAf} c'4{/F_db} e'4!<)! | %59
!>(!{/Fca} f'4{/FAc} f2{/FAc} f2!>)! |!p!{/FAc} f8 |] %61

